#define fs_logo_oled_128x32_width 128
#define fs_logo_oled_128x32_height 32
static unsigned char fs_logo_oled_128x32_bits[] = {
0x00,0x00,0x00,0x00,0x00,0x00,0x00,0x00,0x00,0x00,0x00,0x00,0x00,0x00,0x00,0x00,0x00,0x00,0x00,0x00,0x00,0x00,0x00,0x00,0x00,0x00,0x00,0x00,0x00,0x00,0x00,0x00,0x00,0x00,0x00,0x00,0x00,0x00,0x00,0x00,0x00,0x00,0x00,0x00,0x00,0x00,0x00,0x00,0x00,0x00,0x00,0x00,0x00,0x00,0x00,0x00,0x00,0x00,0x00,0x00,0x00,0x00,0x00,0x00,0x00,0x00,0x00,0x00,0x00,0x00,0x00,0x00,0x00,0x00,0x00,0x00,0x00,0x00,0x00,0x00,0x00,0x00,0x00,0x00,0x00,0x00,0x00,0x00,0x00,0x00,0x00,0x00,0x00,0x00,0x00,0x00,0x00,0x00,0x00,0x00,0x00,0x00,0x00,0x00,0x00,0x00,0x00,0x00,0x00,0x00,0x00,0x00,0x00,0x00,0x80,0x07,0x00,0x00,0x00,0x00,0x00,0x00,0x00,0x00,0x00,0x00,0x00,0x00,0x00,0x00,0xe0,0x03,0x00,0x00,0x00,0x00,0x00,0x00,0x00,0x00,0x00,0x00,0x00,0x00,0x00,0x00,0xf8,0x03,0x00,0x00,0x00,0x00,0x00,0x00,0x00,0x00,0x00,0x00,0x00,0x00,0x00,0x00,0xfc,0x01,0x00,0x00,0x00,0x04,0x00,0x00,0x00,0x00,0x00,0x00,0x00,0x00,0x00,0x00,0xff,0xc1,0x1f,0x00,0x00,0x0c,0x00,0x00,0x3e,0x00,0x00,0x00,0x00,0x00,0x00,0x8c,0xff,0xc0,0x0f,0x00,0x00,0x00,0x00,0x00,0x36,0x00,0x00,0x00,0x00,0x00,0x00,0x07,0xfe,0xc0,0x00,0x00,0x0e,0x00,0x0c,0x08,0x03,0x10,0x04,0x30,0x30,0x00,0x00,0x06,0x7c,0xc0,0xc0,0x88,0x1f,0x0f,0x1f,0x3f,0x06,0x7e,0x3c,0xfc,0xf8,0x00,0x00,0x00,0x78,0xc0,0xc0,0x88,0x01,0x0c,0x33,0x33,0x0e,0x66,0x60,0xcc,0xcc,0x00,0x00,0x00,0x30,0xc0,0xcf,0x88,0x03,0x8c,0x31,0x33,0x38,0x46,0x78,0x06,0xcc,0x00,0x00,0x00,0x10,0xc0,0xc0,0x08,0x1f,0x8c,0x31,0x33,0x70,0x46,0x7e,0x06,0xfc,0x00,0x00,0xe0,0x10,0xc0,0xc0,0x08,0x18,0x0c,0x31,0x33,0x60,0x46,0x66,0x04,0x0c,0x00,0x00,0x78,0x00,0xc0,0xc0,0x9f,0x1f,0x3f,0x3f,0x33,0x77,0x7e,0xf6,0x7c,0xfc,0x00,0x00,0x7c,0x00,0xc0,0x80,0x9b,0x8f,0x3f,0x1e,0x33,0x3f,0x3e,0xde,0xf8,0xf8,0x00,0x00,0x30,0x10,0x00,0x00,0x00,0x00,0x00,0x00,0x00,0x00,0x06,0x00,0x00,0x00,0x00,0x00,0x30,0x18,0x00,0x00,0x00,0x00,0x00,0x00,0x00,0x00,0x06,0x00,0x00,0x00,0x00,0x00,0x00,0x1c,0x00,0x00,0x00,0x00,0x00,0x00,0x00,0x00,0x06,0x00,0x00,0x00,0x00,0x00,0x00,0x08,0x00,0x00,0x00,0x00,0x00,0x00,0x00,0x00,0x00,0x00,0x00,0x00,0x00,0x00,0x00,0x00,0x00,0x00,0x00,0x00,0x00,0x00,0x00,0x00,0x00,0x00,0x00,0x00,0x00,0x00,0x00,0x00,0x00,0x00,0x00,0x00,0x00,0x00,0x00,0x00,0x00,0x00,0x00,0x00,0x00,0x00,0x00,0x00,0x00,0x00,0x00,0x00,0x00,0x00,0x00,0x00,0x00,0x00,0x00,0x00,0x00,0x00,0x00,0x00,0x00,0x00,0x00,0x00,0x00,0x00,0x00,0x00,0x00,0x00,0x00,0x00,0x00,0x00,0x00,0x00,0x00,0x00,0x00,0x00,0x00,0x00,0x00,0x00,0x00,0x00,0x00,0x00,0x00,0x00,0x00,0x00,0x00,0x00,0x00,0x00,0x00,0x00,0x00,0x00,0x00,0x00,0x00,0x00,0x00,0x00,0x00,0x00,0x00,0x00,0x00,0x00,0x00,0x00,0x00,0x00,0x00,0x00,0x00,0x00,0x00 };
