#define fs_logo_oled_72x40_mark_width 72
#define fs_logo_oled_72x40_mark_height 40
static unsigned char fs_logo_oled_72x40_mark_bits[] = {
0x00,0x00,0x00,0x00,0x00,0x00,0x00,0x00,0x00,0x00,0x00,0x00,0x00,0x00,0x00,0x00,0x00,0x00,0x00,0x00,0x00,0x00,0x00,0x00,0x10,0x00,0x00,0x00,0x00,0x00,0x00,0x00,0x00,0x1e,0x00,0x00,0x00,0x00,0x00,0x00,0x00,0x80,0x1f,0x00,0x00,0x00,0x00,0x00,0x00,0x00,0xe0,0x1f,0x00,0x00,0x00,0x00,0x00,0x00,0x00,0xf8,0x1f,0x00,0x00,0x00,0x00,0x00,0x00,0x00,0xfe,0x0f,0x00,0x00,0x00,0x00,0x00,0x00,0x80,0xff,0x0f,0x00,0x00,0x00,0x00,0x00,0x00,0xe0,0xff,0x07,0x00,0x00,0x00,0x00,0x00,0x00,0xf0,0xff,0x07,0x00,0x00,0x00,0x00,0x00,0x04,0xfc,0xff,0x03,0x00,0x00,0x00,0x00,0x00,0x03,0xfe,0xff,0x03,0x00,0x00,0x00,0x00,0xc0,0x83,0xff,0xff,0x01,0x00,0x00,0x00,0x00,0xe0,0xc1,0xff,0xff,0x01,0x00,0x00,0x00,0x00,0xf8,0x01,0xf8,0xff,0x00,0x00,0x00,0x00,0x00,0xe0,0x00,0xe0,0xff,0x00,0x00,0x00,0x00,0x00,0xc0,0x00,0x80,0x7f,0x00,0x00,0x00,0x00,0x00,0x40,0x00,0x80,0x3f,0x00,0x00,0x00,0x00,0x00,0x00,0x00,0x00,0x3f,0x00,0x00,0x00,0x00,0x00,0x00,0x00,0x00,0x1f,0x00,0x00,0x00,0x00,0x00,0x00,0x00,0x00,0x1e,0x00,0x00,0x00,0x00,0x00,0x00,0x00,0x00,0x0e,0x00,0x00,0x00,0x00,0x00,0x00,0xc0,0x01,0x06,0x00,0x00,0x00,0x00,0x00,0x00,0xf0,0x01,0x02,0x00,0x00,0x00,0x00,0x00,0x00,0xfc,0x01,0x02,0x00,0x00,0x00,0x00,0x00,0x00,0xff,0x00,0x00,0x00,0x00,0x00,0x00,0x00,0x80,0xff,0x00,0x00,0x00,0x00,0x00,0x00,0x00,0xc0,0x7f,0x00,0x00,0x00,0x00,0x00,0x00,0x00,0x00,0x7c,0x00,0x00,0x00,0x00,0x00,0x00,0x00,0x00,0x38,0x00,0x0e,0x00,0x00,0x00,0x00,0x00,0x00,0x38,0x80,0x0f,0x00,0x00,0x00,0x00,0x00,0x00,0x18,0xc0,0x0f,0x00,0x00,0x00,0x00,0x00,0x00,0x08,0xe0,0x07,0x00,0x00,0x00,0x00,0x00,0x00,0x00,0x80,0x03,0x00,0x00,0x00,0x00,0x00,0x00,0x00,0x00,0x03,0x00,0x00,0x00,0x00,0x00,0x00,0x00,0x00,0x01,0x00,0x00,0x00,0x00,0x00,0x00,0x00,0x00,0x00,0x00,0x00,0x00,0x00,0x00,0x00,0x00,0x00,0x00,0x00,0x00,0x00,0x00,0x00,0x00,0x00,0x00,0x00,0x00,0x00,0x00 };
